X:1
T:Amor è ritornato
T:Amor è ritornato
T:Luca Marenzio (1533-1599)
C:Luca Marenzio (1533-1599)
%%score [ 1 2 3 ]
L:1/8
M:2/2
K:Bb
V:1 treble nm="Sopran"
V:2 treble nm="Alt"
V:3 bass nm="Baryton"
V:1
 z4 z2 F2 | G2 A2 B2 c2 | d4 c2 A2 | d3 c B4- | B2 A2 G4 |1 F8 :|2 F4 A2 A B |: c2 c2 d4 | %8
w: A-|mor è ri- tor-|na- to, dal|cam- po~il di-|* spie- ta-|to,|\-to, e mi- li-|on a- van-|
 c4 A2 A B | c2 c2 d4 | c8 | z2 c2 d2 =e2 | f2 c2 _e2 e2 | d2 d2 c4 |1 B4 A2 A B :|2 B8 |] %16
w: ti, e mi- li-|on a- van-|ti,|me- na~il suo|car- ro di pri-|gio- n'~a- man-|ti, e mi- li\-|\-ti.|
V:2
 z4 z2 D2 | D2 F2 G2 A2 | B4 A4 | z2 F2 D3 F | G2 F2 =E4 |1 F8 :|2 F4 F2 F G |: A2 A2 B4 | %8
w: A-|mor è ri- tor-|na- to,|dal cam- po~il|di- spie- ta-|to,|\-to, e mi- li-|on a- van-|
 A4 F2 F G | A2 A2 B4 | A2 F2 G2 A2 | B2 A G F2 G2 | A4 G4 | F2 B4 A2 |1 B4 F2 F G :|2 B8 |] %16
w: ti, e mi- li-|on a- van-|ti, me- na~il suo|car- * * * ro|di pri-|gio- n'~a- man-|ti, e mi- li\-|\-ti.|
V:3
 B,,4 B,4- | B,2 A,2 G,2 F,2 | B,,4 F,4 | z2 D,2 G,,3 D, | E,2 F,2 C,4 |1 F,8 :|2 F,8 |: %7
w: A- mor|_ è ri- tor-|na- to,|dal cam- po~il|di- spie- ta-|to,|\-to,|
 F,2 F, E, D,2 B,,2 | F,4 F,4 | F,2 F, E, D,2 B,,2 | F,4 C,2 F,2 | G,2 A,2 B,2 G,2 | F,4 C,4 | %13
w: e mi- li- on a-|van- ti,|e mi- li- on a-|van- ti, me-|na~il suo car- ro|di pri-|
 D,3 E, F,4 |1 B,,4 z4 :|2 B,,8 |] %16
w: gio- n'~a- man-|ti,|\-ti.|

